X: 1
T: String Quartet in D major opus 1 no 3 mvt 4
C: Franz Joseph Haydn
%%abc-version 2.0
%%abcx-abcm2ps-target-version 5.9.1 (29 Sep 2008)
%%abc-creator hum2abc beta
%%abcx-conversion-date 2021/02/14 14:38:30
%%abc-copyright Copyright (c) 1994, 2000 Center for Computer Assisted Research in the Humanities
%%abc-edited-by Frances Bennion
%%abcx-initial-encoding-date 1997/04/15
%%gracespace 0 6 6
%%humdrum-veritas 4027157445
%%humdrum-veritas-data 924720991
%%linebreak <none>
%%barnumbers 0
L: 1/4
M: 3/4
N: Derived from op01n3-04.krn
Q: "Menuetto II"
%%staves [1 2 3 4]
V: 1
V: 2
V: 3 clef=alto
V: 4 clef=bass
K: D
[V:1]d2 c [I:setbarnb2] |
[V:2]D2 C |
[V:3]D E F |
[V:4]D, E, F, |
[V:1]B2 A |
[V:2]B,2 A, |
[V:3]G G, F |
[V:4]G, G,, F, |
[V:1]B >e c |
[V:2]B, >E C |
[V:3]G E A |
[V:4]G, E, A, |
[V:1]d/e/ f/g/ a/^a/ |
[V:2]D/E/ F/G/ A/^A/ |
[V:3]F D z |
[V:4]F, D, z |
[V:1]b2 a |
[V:2]B2 A |
[V:3]G, G F |
[V:4]G,, G, F, |
[V:1]g2 f |
[V:2]G2 F |
[V:3]z C D |
[V:4]z E, D, |
[V:1]e >f c |
[V:2]E >F C |
[V:3]G E A |
[V:4]G, E, A, |
[V:1]d2 z |
[V:2]D2 z |
[V:3]D A, D, |
[V:4]D, A,, D,, |
[V:1]A2 _B |
[V:2]A,2 _B, |
[V:3]z =F G |
[V:4]z =F, G, |
[V:1]A c d |
[V:2]A, C D |
[V:3]=F E D |
[V:4]=F, E, D, |
[V:1]A2 c |
[V:2]A,2 C |
[V:3]z A G |
[V:4]z A, G, |
[V:1]d e =f |
[V:2]D E =F |
[V:3]=F E D |
[V:4]=F, E, D, |
[V:1]g >a =f |
[V:2]G >A =F |
[V:3]z _B A |
[V:4]z _B, A, |
[V:1]e >=f d |
[V:2]E >=F D |
[V:3]z G =F |
[V:4]z G, =F, |
[V:1]c c d/c//d// |
[V:2]C C D/C//D// |
[V:3]E E D |
[V:4]E, E, D, |
[V:1]e z2 |
[V:2]E z2 |
[V:3]A, A A, |
[V:4]A,, A, A,, |
[V:1]d2 c |
[V:2]D2 C |
[V:3]D E F |
[V:4]D, E, F, |
[V:1]B2 A |
[V:2]B,2 A, |
[V:3]G G, F |
[V:4]G, G,, F, |
[V:1]B >e c |
[V:2]B, >E C |
[V:3]G E A |
[V:4]G, E, A, |
[V:1]d/e/ f/g/ a/^a/ |
[V:2]D/E/ F/G/ A/^A/ |
[V:3]F D z |
[V:4]F, D, z |
[V:1]b2 a |
[V:2]B2 A |
[V:3]z G F |
[V:4]z G, F, |
[V:1]g2 f |
[V:2]G2 F |
[V:3]z E D |
[V:4]z E, D, |
[V:1]b2 c' |
[V:2]B2 c |
[V:3]G E A |
[V:4]G, E, A, |
[V:1]d'2 f |
[V:2]d2 F |
[V:3]F E D |
[V:4]F, E, D, |
[V:1]e/f/ g/a/ ^a/b/ |
[V:2]E/F/ G/A/ ^A/B/ |
[V:3]G z E |
[V:4]G, z E, |
[V:1]c2 d |
[V:2]C2 D |
[V:3]A G F |
[V:4]A, G, F, |
[V:1]e >f c |
[V:2]E >F C |
[V:3]G E A |
[V:4]G, E, A, |
[V:1]d z2 |
[V:2]D z2 |
[V:3]D A, D, |
[V:4]D, A,, D,, |
[V:1]d3 |
[V:2]z/A/ G/=F/ E/D/ |
[V:3]D3 |
[V:4]D, z2 |
[V:1]e3 |
[V:2]C z2 |
[V:3]E3 |
[V:4]z/_B,/ A,/G,/ =F,/E,/ |
[V:1]=f3 |
[V:2]z/A/ G/=F/ E/D/ |
[V:3]=F3 |
[V:4]D, z2 |
[V:1]g3 |
[V:2]_B z2 |
[V:3]G3 |
[V:4]z/G,/ =F,/E,/ D,/=C,/ |
[V:1]a3 |
[V:2]z/=c/ _B/A/ G/=F/ |
[V:3]A3 |
[V:4]=F, z2 |
[V:1]_b3 |
[V:2]d z g |
[V:3]_B3 |
[V:4]z/_B,/ A,/G,/ =F,/E,/ |
[V:1]a A G |
[V:2]=f =F E |
[V:3]A A, G, |
[V:4]=F,/A,/ =C/_B,/ C/=C,/ |
[V:1]=F2 z |
[V:2]=F2 z |
[V:3]=F,2 z |
[V:4]=F,/G,/ A,/G,/ F,/E,/ |
[V:1]=f3 |
[V:2]z/=F/ A/G/ A/_B/ |
[V:3]=F3 |
[V:4]=F, z2 |
[V:1]_e3 |
[V:2]=c z2 |
[V:3]_E3 |
[V:4]z/=F,/ G,/F,/ G,/A,/ |
[V:1]d3 |
[V:2]z/_B,/ D/=C/ D/E/ |
[V:3]D3 |
[V:4]_B, z2 |
[V:1]=c3 |
[V:2]=F z2 |
[V:3]=C3 |
[V:4]z/A,/ F,/D,/ E,/F,/ |
[V:1]_B3 |
[V:2]z/G,/ G/=C/ D/E/ |
[V:3]_B,3 |
[V:4]G, z2 |
[V:1]A3 |
[V:2]=F3 |
[V:3]A,3 |
[V:4]z/=F,/ A,/D/ D/=C/ |
[V:1]G2 E |
[V:2]=F2 E |
[V:3]G,2 E, |
[V:4]_B,/A,/ B,/G,/ =C/=C,/ |
[V:1]=F z2 |
[V:2]=F z2 |
[V:3]=F, z2 |
[V:4]=F,/G,/ A,/G,/ F,/E,/ |
[V:1]F3 |
[V:2]z3 |
[V:3]F,3 |
[V:4]D,/_E,/ D,/=C,/ _B,,/A,,/ |
[V:1]G3 |
[V:2]z/d/ d/=c/ _B/A/ |
[V:3]G,3 |
[V:4]G,, z2 |
[V:1]^G3 |
[V:2]^G z2 |
[V:3]^G,3 |
[V:4]z/=F,/ E,/D,/ C,/B,,/ |
[V:1]A3 |
[V:2]z/e/ d/c/ B/A/ |
[V:3]A,3 |
[V:4]A,, z2 |
[V:1]_B2 _b |
[V:2]g z _b |
[V:3]_B,2 _B |
[V:4]z/G,/ =F,/E,/ D,/C,/ |
[V:1]a c d |
[V:2]a c d |
[V:3]A C D |
[V:4]D,/=F,/ E,/G,/ F,/D,/ |
[V:1]_B A C |
[V:2]_B A C |
[V:3]_B, A, C, |
[V:4]G,/E,/ A,/G,/ A,/A,,/ |
[V:1]D z2 |]
[V:2]D z2 |]
[V:3]D, z2 |]
[V:4]D, A,, D,, |]

